static/logos/cloudflare-wordmark-color.svg

<svg width="100" height="34" viewBox="0 0 100 34" fill="none" xmlns="http://www.w3.org/2000/svg">
<g clip-path="url(#clip0_1_3226)">
<path d="M84.7712 21.2902L85.0155 20.4453C85.3067 19.4404 85.1984 18.5113 84.7099 17.8287C84.2602 17.2 83.5111 16.8297 82.6011 16.7867L65.3675 16.5686C65.314 16.5676 65.2616 16.554 65.2144 16.5289C65.167 16.5038 65.1265 16.468 65.0956 16.4243C65.0655 16.3791 65.0463 16.3275 65.0395 16.2737C65.0328 16.2198 65.0388 16.165 65.0569 16.1138C65.0865 16.0294 65.1401 15.9555 65.2112 15.9012C65.2825 15.847 65.3679 15.8147 65.4572 15.8084L82.8504 15.588C84.9137 15.4933 87.1476 13.8204 87.9297 11.7804L88.9215 9.19045C88.9622 9.08093 88.9715 8.96228 88.9484 8.84779C87.8222 3.78553 83.3009 0 77.8951 0C72.9144 0 68.6853 3.21238 67.1684 7.67739C66.1433 6.90855 64.8652 6.55512 63.5905 6.68784C61.2009 6.92495 59.2797 8.84739 59.0431 11.2355C58.9825 11.8318 59.0268 12.4342 59.1745 13.0152C55.271 13.1289 52.1406 16.3246 52.1406 20.2528C52.1411 20.6035 52.167 20.9537 52.2182 21.3007C52.2295 21.3807 52.2692 21.4542 52.3302 21.5075C52.3911 21.5608 52.4694 21.5904 52.5503 21.5909L84.3665 21.5949C84.3695 21.595 84.3725 21.595 84.3755 21.5949C84.4655 21.5932 84.5526 21.5628 84.6238 21.508C84.6951 21.453 84.7468 21.3767 84.7712 21.2902Z" fill="#F6821F"/>
<path d="M90.5139 9.3783C90.3543 9.3783 90.1951 9.38232 90.0367 9.39032C90.0111 9.39215 89.986 9.39765 89.9621 9.40663C89.9205 9.42082 89.883 9.44486 89.8528 9.47668C89.8225 9.50851 89.8004 9.5472 89.7885 9.58941L89.1109 11.9282C88.8195 12.9333 88.9279 13.8616 89.4169 14.5442C89.8662 15.1736 90.6154 15.543 91.5252 15.5861L95.1991 15.8065C95.2508 15.8082 95.3013 15.822 95.3468 15.8466C95.3921 15.8713 95.4312 15.9062 95.4607 15.9486C95.4913 15.994 95.5107 16.0459 95.5174 16.1001C95.5242 16.1544 95.5181 16.2095 95.4996 16.2609C95.4701 16.3452 95.4164 16.419 95.3455 16.4732C95.2745 16.5275 95.1891 16.5598 95.1001 16.5664L91.2828 16.7868C89.2102 16.8823 86.9769 18.5544 86.1955 20.5944L85.9197 21.3147C85.9083 21.3447 85.9039 21.3771 85.9074 21.4092C85.9109 21.4413 85.9219 21.4722 85.9396 21.4991C85.9574 21.526 85.9812 21.5484 86.0093 21.5643C86.0373 21.5801 86.0689 21.5893 86.1011 21.5906C86.1046 21.5906 86.1078 21.5906 86.1112 21.5906H99.2461C99.3225 21.5913 99.397 21.567 99.4583 21.5213C99.5194 21.4756 99.5641 21.4114 99.5852 21.3379C99.8179 20.5082 99.9355 19.6506 99.9347 18.7888C99.9332 13.5919 95.7159 9.3783 90.5139 9.3783Z" fill="#FBAD41"/>
<path d="M11.125 25.4801H13.3658V31.597H17.2816V33.5588H11.125V25.4801Z" fill="#222222"/>
<path d="M19.6016 29.5427V29.5197C19.6016 27.2 21.4727 25.3182 23.9675 25.3182C26.4624 25.3182 28.31 27.1767 28.31 29.4965V29.5197C28.31 31.8395 26.4386 33.7201 23.9446 33.7201C21.4506 33.7201 19.6016 31.8624 19.6016 29.5427ZM26.023 29.5427V29.5197C26.023 28.3556 25.1803 27.338 23.9446 27.338C22.7202 27.338 21.8999 28.3307 21.8999 29.4965V29.5197C21.8999 30.684 22.7431 31.7011 23.9675 31.7011C25.2032 31.7011 26.023 30.7084 26.023 29.5427Z" fill="#222222"/>
<path d="M31.0547 30.0158V25.4797H33.3301V29.9699C33.3301 31.1341 33.9193 31.6894 34.8198 31.6894C35.7205 31.6894 36.3095 31.1586 36.3095 30.0274V25.4797H38.5853V29.9568C38.5853 32.5653 37.0956 33.7073 34.7969 33.7073C32.4982 33.7073 31.0547 32.5432 31.0547 30.0146" fill="#222222"/>
<path d="M42.0078 25.4803H45.1262C48.0141 25.4803 49.6887 27.1421 49.6887 29.4732V29.4968C49.6887 31.8275 47.9909 33.5591 45.0804 33.5591H42.0078V25.4803ZM45.1613 31.573C46.5015 31.573 47.39 30.8357 47.39 29.5298V29.5069C47.39 28.2147 46.5015 27.4642 45.1613 27.4642H44.2487V31.5737L45.1613 31.573Z" fill="#222222"/>
<path d="M52.9453 25.4801H59.4131V27.4426H55.1862V28.8155H59.0091V30.6735H55.1862V33.5588H52.9453V25.4801Z" fill="#222222"/>
<path d="M62.5312 25.4801H64.7719V31.597H68.6877V33.5588H62.5312V25.4801Z" fill="#222222"/>
<path d="M74.5439 25.4222H76.7031L80.1454 33.5588H77.7431L77.1536 32.1159H74.0348L73.4577 33.5588H71.1016L74.5439 25.4222ZM76.507 30.3736L75.606 28.0766L74.6934 30.3736H76.507Z" fill="#222222"/>
<path d="M83.0312 25.4797H86.8542C88.0907 25.4797 88.9447 25.8033 89.4876 26.3571C89.9618 26.8189 90.204 27.4437 90.204 28.2389V28.2616C90.204 29.4962 89.5439 30.3158 88.5407 30.7425L90.4698 33.5591H87.8818L86.2533 31.112H85.2719V33.5591H83.0312V25.4797ZM86.7505 29.358C87.5128 29.358 87.952 28.9885 87.952 28.3998V28.3769C87.952 27.742 87.4899 27.4193 86.7384 27.4193H85.2719V29.3595L86.7505 29.358Z" fill="#222222"/>
<path d="M93.4375 25.4801H99.9398V27.3848H95.6554V28.6075H99.5363V30.3736H95.6554V31.6549H99.9976V33.5588H93.4375V25.4801Z" fill="#222222"/>
<path d="M6.21678 30.4895C5.90299 31.1985 5.24277 31.7007 4.36548 31.7007C3.14061 31.7007 2.29789 30.685 2.29789 29.5194V29.4962C2.29789 28.3319 3.11771 27.3377 4.34219 27.3377C5.2653 27.3377 5.96822 27.9051 6.26493 28.6769H8.62689C8.24864 26.7542 6.55774 25.3186 4.36548 25.3186C1.87032 25.3186 0 27.2015 0 29.5194V29.5424C0 31.8621 1.84741 33.7209 4.34219 33.7209C6.4762 33.7209 8.14417 32.3402 8.58419 30.4899L6.21678 30.4895Z" fill="#222222"/>
</g>
<defs>
<clipPath id="clip0_1_3226">
<rect width="100" height="33.7209" fill="white"/>
</clipPath>
</defs>
</svg>

<svg xmlns="http://www.w3.org/2000/svg" width="188.235" height="64" fill="none" viewBox="0 0 100 34"><g clip-path="url(#a)"><path fill="#F6821F" d="m84.771 21.29.245-.845c.29-1.005.182-1.934-.306-2.616-.45-.629-1.199-1-2.109-1.042l-17.233-.218a.34.34 0 0 1-.272-.145.351.351 0 0 1-.04-.31.458.458 0 0 1 .401-.306l17.393-.22c2.064-.095 4.298-1.768 5.08-3.808l.991-2.59c.041-.11.05-.228.027-.342C87.822 3.786 83.301 0 77.895 0c-4.98 0-9.21 3.212-10.727 7.677a5.1 5.1 0 0 0-7.994 5.338c-3.903.114-7.033 3.31-7.033 7.238 0 .35.026.7.077 1.048a.337.337 0 0 0 .332.29l31.817.004h.008a.42.42 0 0 0 .396-.305Z"/><path fill="#FBAD41" d="M90.514 9.378c-.16 0-.319.004-.477.012a.266.266 0 0 0-.075.017.272.272 0 0 0-.174.182l-.677 2.34c-.291 1.004-.183 1.933.306 2.615.45.63 1.198.999 2.108 1.042l3.674.22a.334.334 0 0 1 .3.455.458.458 0 0 1-.399.305l-3.817.22c-2.073.096-4.306 1.768-5.088 3.808l-.275.72a.204.204 0 0 0 .181.277h13.145a.35.35 0 0 0 .34-.253c.232-.83.35-1.687.349-2.55-.002-5.196-4.22-9.41-9.421-9.41Z"/><path fill="#222" d="M11.125 25.48h2.24v6.117h3.917v1.962h-6.157V25.48ZM19.602 29.543v-.023c0-2.32 1.87-4.202 4.366-4.202 2.494 0 4.342 1.859 4.342 4.178v.024c0 2.32-1.871 4.2-4.365 4.2s-4.343-1.858-4.343-4.177Zm6.421 0v-.023c0-1.164-.843-2.182-2.078-2.182-1.225 0-2.045.993-2.045 2.159v.023c0 1.164.843 2.181 2.068 2.181 1.235 0 2.055-.993 2.055-2.158ZM31.055 30.016V25.48h2.275v4.49c0 1.164.59 1.72 1.49 1.72s1.49-.531 1.49-1.663V25.48h2.275v4.477c0 2.608-1.49 3.75-3.788 3.75-2.299 0-3.742-1.164-3.742-3.692M42.008 25.48h3.118c2.888 0 4.563 1.662 4.563 3.993v.024c0 2.33-1.698 4.062-4.609 4.062h-3.072V25.48Zm3.153 6.093c1.34 0 2.229-.737 2.229-2.043v-.023c0-1.292-.889-2.043-2.229-2.043h-.912v4.11l.912-.001ZM52.945 25.48h6.468v1.963h-4.227v1.372h3.823v1.858h-3.823v2.886h-2.24V25.48ZM62.531 25.48h2.24v6.117h3.917v1.962H62.53V25.48ZM74.544 25.422h2.16l3.441 8.137h-2.402l-.59-1.443h-3.118l-.577 1.443h-2.356l3.442-8.137Zm1.963 4.952-.901-2.297-.913 2.297h1.814ZM83.031 25.48h3.823c1.237 0 2.09.323 2.634.877.474.462.716 1.087.716 1.882v.023c0 1.234-.66 2.054-1.663 2.48l1.929 2.817h-2.588l-1.629-2.447h-.981v2.447h-2.24v-8.08Zm3.72 3.878c.762 0 1.201-.37 1.201-.958v-.023c0-.635-.462-.958-1.214-.958h-1.466v1.94l1.478-.001ZM93.438 25.48h6.502v1.905h-4.285v1.223h3.881v1.766h-3.88v1.28h4.342v1.905h-6.56V25.48ZM6.217 30.49c-.314.709-.974 1.21-1.852 1.21-1.224 0-2.067-1.015-2.067-2.18v-.024c0-1.164.82-2.158 2.044-2.158.923 0 1.626.567 1.923 1.339h2.362c-.378-1.923-2.07-3.358-4.262-3.358-2.495 0-4.365 1.883-4.365 4.2v.023c0 2.32 1.847 4.179 4.342 4.179 2.134 0 3.802-1.38 4.242-3.231H6.217Z"/></g><defs><clipPath id="a"><path fill="#fff" d="M0 0h100v33.721H0z"/></clipPath></defs></svg>
